symbolic/64x64/apps/lyne.svg

<svg xmlns="http://www.w3.org/2000/svg" width="64" height="64" version="1">
 <rect style="opacity:0.2" width="57" height="57" x="4" y="4" rx="2.85" ry="2.85"/>
 <rect style="fill:#f2385a" width="57" height="57" x="4" y="3" rx="2.85" ry="2.85"/>
 <path style="opacity:0.2" d="m 12,11 v 8 h 6 V 17.974609 H 12.923828 V 11 Z m 11,0 c 0.155105,1.278632 0.483385,2.302547 0.982422,3.068359 0.458574,0.704275 1.128288,1.37094 2.011719,2 V 19 h 1.011718 v -2.931641 c 0.883431,-0.62906 1.553146,-1.295725 2.011719,-2 C 29.516616,13.302547 29.844893,12.278632 30,11 h -1.023438 c -0.134873,1.046154 -0.403967,1.884612 -0.808593,2.513672 C 27.79032,14.101705 27.235068,14.659052 26.5,15.185547 25.764934,14.659052 25.209679,14.101705 24.832031,13.513672 24.427404,12.884612 24.15831,12.046154 24.023438,11 Z m 12,0 v 8 h 0.896484 V 13.369141 L 41,19 v -8 h -0.896484 v 5.609375 z m 11,0 v 8 h 6 V 17.974609 H 46.921875 V 15 H 51 V 14.085938 H 46.921875 V 12.025391 H 52 V 11 Z m -30,11.5 -4,4 4,4 4,-4 z m 11,0 -4,4 4,4 4,-4 z m 11,0 -4,4 4,4 4,-4 z m 11,0 -4,4 4,4 4,-4 z m -33,11 -4,4 4,4 4,-4 z m 11,0 -4,4 4,4 4,-4 z m 11,0 -4,4 4,4 4,-4 z m 11,0 -4,4 4,4 4,-4 z m -33,11 -4,4 4,4 4,-4 z m 11,0 -4,4 4,4 4,-4 z m 11,0 -4,4 4,4 4,-4 z m 11,0 -4,4 4,4 4,-4 z"/>
 <path style="fill:#ffffff" d="M 12 10 L 12 18 L 18 18 L 18 16.974609 L 12.923828 16.974609 L 12.923828 10 L 12 10 z M 23 10 C 23.155105 11.278632 23.483385 12.302547 23.982422 13.068359 C 24.440996 13.772634 25.11071 14.439299 25.994141 15.068359 L 25.994141 18 L 27.005859 18 L 27.005859 15.068359 C 27.88929 14.439299 28.559005 13.772634 29.017578 13.068359 C 29.516616 12.302547 29.844893 11.278632 30 10 L 28.976562 10 C 28.841689 11.046154 28.572595 11.884612 28.167969 12.513672 C 27.79032 13.101705 27.235068 13.659052 26.5 14.185547 C 25.764934 13.659052 25.209679 13.101705 24.832031 12.513672 C 24.427404 11.884612 24.15831 11.046154 24.023438 10 L 23 10 z M 35 10 L 35 18 L 35.896484 18 L 35.896484 12.369141 L 41 18 L 41 10 L 40.103516 10 L 40.103516 15.609375 L 35 10 z M 46 10 L 46 18 L 52 18 L 52 16.974609 L 46.921875 16.974609 L 46.921875 14 L 51 14 L 51 13.085938 L 46.921875 13.085938 L 46.921875 11.025391 L 52 11.025391 L 52 10 L 46 10 z M 16 21.5 L 12 25.5 L 16 29.5 L 20 25.5 L 16 21.5 z M 27 21.5 L 23 25.5 L 27 29.5 L 31 25.5 L 27 21.5 z M 38 21.5 L 34 25.5 L 38 29.5 L 42 25.5 L 38 21.5 z M 49 21.5 L 45 25.5 L 49 29.5 L 53 25.5 L 49 21.5 z M 16 32.5 L 12 36.5 L 16 40.5 L 20 36.5 L 16 32.5 z M 27 32.5 L 23 36.5 L 27 40.5 L 31 36.5 L 27 32.5 z M 38 32.5 L 34 36.5 L 38 40.5 L 42 36.5 L 38 32.5 z M 49 32.5 L 45 36.5 L 49 40.5 L 53 36.5 L 49 32.5 z M 16 43.5 L 12 47.5 L 16 51.5 L 20 47.5 L 16 43.5 z M 27 43.5 L 23 47.5 L 27 51.5 L 31 47.5 L 27 43.5 z M 38 43.5 L 34 47.5 L 38 51.5 L 42 47.5 L 38 43.5 z M 49 43.5 L 45 47.5 L 49 51.5 L 53 47.5 L 49 43.5 z"/>
 <path style="fill:#ffffff;opacity:0.2" d="M 6.8496094 3 C 5.2707094 3 4 4.2707094 4 5.8496094 L 4 6.8496094 C 4 5.2707094 5.2707094 4 6.8496094 4 L 58.150391 4 C 59.729291 4 61 5.2707094 61 6.8496094 L 61 5.8496094 C 61 4.2707094 59.729291 3 58.150391 3 L 6.8496094 3 z"/>
</svg>

<svg xmlns="http://www.w3.org/2000/svg" width="64" height="64" version="1"><rect style="opacity:.2" width="57" height="57" x="4" y="4" rx="2.85" ry="2.85"/><rect style="fill:#f2385a" width="57" height="57" x="4" y="3" rx="2.85" ry="2.85"/><path style="opacity:.2" d="M12 11v8h6v-1.025h-5.076V11zm11 0c.155 1.279.483 2.303.982 3.068.459.705 1.129 1.371 2.012 2V19h1.012v-2.932c.883-.629 1.553-1.295 2.012-2 .499-.765.827-1.79.982-3.068h-1.023c-.135 1.046-.404 1.885-.809 2.514-.378.588-.933 1.145-1.668 1.672-.735-.527-1.29-1.084-1.668-1.672-.405-.63-.674-1.468-.809-2.514zm12 0v8h.896v-5.63L41 19v-8h-.896v5.61zm11 0v8h6v-1.025h-5.078V15H51v-.914h-4.078v-2.06H52V11zM16 22.5l-4 4 4 4 4-4zm11 0-4 4 4 4 4-4zm11 0-4 4 4 4 4-4zm11 0-4 4 4 4 4-4zm-33 11-4 4 4 4 4-4zm11 0-4 4 4 4 4-4zm11 0-4 4 4 4 4-4zm11 0-4 4 4 4 4-4zm-33 11-4 4 4 4 4-4zm11 0-4 4 4 4 4-4zm11 0-4 4 4 4 4-4zm11 0-4 4 4 4 4-4z"/><path style="fill:#fff" d="M12 10v8h6v-1.025h-5.076V10H12zm11 0c.155 1.279.483 2.303.982 3.068.459.705 1.129 1.371 2.012 2V18h1.012v-2.932c.883-.629 1.553-1.295 2.012-2 .499-.765.827-1.79.982-3.068h-1.023c-.135 1.046-.404 1.885-.809 2.514-.378.588-.933 1.145-1.668 1.672-.735-.527-1.29-1.084-1.668-1.672-.405-.63-.674-1.468-.809-2.514H23zm12 0v8h.896v-5.63L41 18v-8h-.896v5.61L35 10zm11 0v8h6v-1.025h-5.078V14H51v-.914h-4.078v-2.06H52V10h-6zM16 21.5l-4 4 4 4 4-4-4-4zm11 0-4 4 4 4 4-4-4-4zm11 0-4 4 4 4 4-4-4-4zm11 0-4 4 4 4 4-4-4-4zm-33 11-4 4 4 4 4-4-4-4zm11 0-4 4 4 4 4-4-4-4zm11 0-4 4 4 4 4-4-4-4zm11 0-4 4 4 4 4-4-4-4zm-33 11-4 4 4 4 4-4-4-4zm11 0-4 4 4 4 4-4-4-4zm11 0-4 4 4 4 4-4-4-4zm11 0-4 4 4 4 4-4-4-4z"/><path style="fill:#fff;opacity:.2" d="M6.85 3A2.843 2.843 0 0 0 4 5.85v1C4 5.27 5.27 4 6.85 4h51.3C59.73 4 61 5.27 61 6.85v-1C61 4.27 59.73 3 58.15 3H6.85z"/></svg>
